src/assets/img/dashboard/coin_token.svg

<svg fill="none" height="24" viewBox="0 0 25 24" width="25" xmlns="http://www.w3.org/2000/svg" xmlns:xlink="http://www.w3.org/1999/xlink"><linearGradient id="a"><stop offset="0" stop-color="#02e1b3"/><stop offset=".35" stop-color="#0b54ff"/><stop offset=".43" stop-color="#1152ff"/><stop offset=".54" stop-color="#204bff"/><stop offset=".66" stop-color="#3b40fe"/><stop offset=".8" stop-color="#5f31fe"/><stop offset=".93" stop-color="#8e1efd"/><stop offset="1" stop-color="#a714fd"/></linearGradient><radialGradient id="b" cx="0" cy="0" gradientTransform="matrix(35.333 0 0 35.2601 26.1419 24.0039)" gradientUnits="userSpaceOnUse" r="1" xlink:href="#a"/><radialGradient id="c" cx="0" cy="0" gradientTransform="matrix(26.501 0 0 26.4481 22.614 20.9994)" gradientUnits="userSpaceOnUse" r="1" xlink:href="#a"/><clipPath id="d"><rect height="24" rx="12" width="24" x=".025879"/></clipPath><g clip-path="url(#d)"><path d="m24.0259 0h-24.0000211v23.9532h24.0000211z" fill="url(#b)"/><path d="m4.97224 18.0765c-.28847-.3324-.5532-.6846-.79222-1.0541l5.05592-5.0453-5.05592-5.04587c.23915-.36917.50387-.72117.79222-1.05352l6.11156 6.09939zm-1.45688-9.92693c-.19836.43855-.36194.89188-.48924 1.35593l2.47651 2.4716-2.47651 2.4716c.12739.464.29096.9174.48924 1.3559l3.83517-3.8275zm8.51144 4.77013-6.11158 6.0994c.33267.2882.68545.5524 1.05562.7907l5.05596-5.0459 5.0554 5.0459c.3702-.2383.723-.5025 1.0557-.7907zm3.8352 7.5539-3.8357-3.828-3.83516 3.8275c.43945.1978.89372.3611 1.35863.4883l2.47653-2.4716 2.477 2.4716c.4649-.128.9192-.2917 1.3587-.4899zm-3.8352-9.4376 6.1111-6.09934c-.3328-.28788-.6856-.55193-1.0557-.79017l-5.0554 5.04533-5.05596-5.04533c-.37007.23824-.72281.50229-1.05562.79017zm8.5109 4.7686c.1984-.4385.362-.8918.4893-1.3559l-2.4766-2.4716 2.4766-2.4716c-.1274-.46419-.291-.91771-.4893-1.35644l-3.8351 3.82804zm-5.7205-3.8275 5.0559-5.04587c-.2391-.36926-.5038-.72126-.7923-1.05352l-6.1095 6.09939 6.1116 6.0994c.2885-.3324.5532-.6846.7922-1.0541zm-2.7909-4.66697 3.8357-3.82749c-.4395-.19779-.8938-.36105-1.3587-.48826l-2.477 2.47159-2.47653-2.47159c-.46486.12744-.91908.29069-1.35863.48826z" fill="url(#c)"/><path d="m4.97224 18.0765c-.28847-.3324-.5532-.6846-.79222-1.0541l5.05592-5.0453-5.05592-5.04587c.23915-.36917.50387-.72117.79222-1.05352l6.11156 6.09939zm-1.45688-9.92693c-.19836.43855-.36194.89188-.48924 1.35593l2.47651 2.4716-2.47651 2.4716c.12739.464.29096.9174.48924 1.3559l3.83517-3.8275zm8.51144 4.77013-6.11158 6.0994c.33267.2882.68545.5524 1.05562.7907l5.05596-5.0459 5.0554 5.0459c.3702-.2383.723-.5025 1.0557-.7907zm3.8352 7.5539-3.8357-3.828-3.83516 3.8275c.43945.1978.89372.3611 1.35863.4883l2.47653-2.4716 2.477 2.4716c.4649-.128.9192-.2917 1.3587-.4899zm-3.8352-9.4376 6.1111-6.09934c-.3328-.28788-.6856-.55193-1.0557-.79017l-5.0554 5.04533-5.05596-5.04533c-.37007.23824-.72281.50229-1.05562.79017zm8.5109 4.7686c.1984-.4385.362-.8918.4893-1.3559l-2.4766-2.4716 2.4766-2.4716c-.1274-.46419-.291-.91771-.4893-1.35644l-3.8351 3.82804zm-5.7205-3.8275 5.0559-5.04587c-.2391-.36926-.5038-.72126-.7923-1.05352l-6.1095 6.09939 6.1116 6.0994c.2885-.3324.5532-.6846.7922-1.0541zm-2.7909-4.66697 3.8357-3.82749c-.4395-.19779-.8938-.36105-1.3587-.48826l-2.477 2.47159-2.47653-2.47159c-.46486.12744-.91908.29069-1.35863.48826z" fill="#fff"/></g></svg>

<svg width="25" height="24" viewBox="0 0 25 24" fill="none" xmlns="http://www.w3.org/2000/svg">
<g clip-path="url(#clip0_3409_12027)">
<path d="M24.0259 0H0.0258789V23.9532H24.0259V0Z" fill="url(#paint0_radial_3409_12027)"/>
<path d="M4.97224 18.0765C4.68377 17.7441 4.41904 17.3919 4.18002 17.0224L9.23594 11.9771L4.18002 6.93123C4.41917 6.56206 4.68389 6.21006 4.97224 5.87771L11.0838 11.9771L4.97224 18.0765ZM3.51536 8.14957C3.317 8.58812 3.15342 9.04145 3.02612 9.5055L5.50263 11.9771L3.02612 14.4487C3.15351 14.9127 3.31708 15.3661 3.51536 15.8046L7.35053 11.9771L3.51536 8.14957ZM12.0268 12.9197L5.91522 19.0191C6.24789 19.3073 6.60067 19.5715 6.97084 19.8098L12.0268 14.7639L17.0822 19.8098C17.4524 19.5715 17.8052 19.3073 18.1379 19.0191L12.0268 12.9197ZM15.862 20.4736L12.0263 16.6456L8.19114 20.4731C8.63059 20.6709 9.08486 20.8342 9.54977 20.9614L12.0263 18.4898L14.5033 20.9614C14.9682 20.8334 15.4225 20.6697 15.862 20.4715V20.4736ZM12.0268 11.036L18.1379 4.93666C17.8051 4.64878 17.4523 4.38473 17.0822 4.14649L12.0268 9.19182L6.97084 4.14649C6.60077 4.38473 6.24803 4.64878 5.91522 4.93666L12.0268 11.036ZM20.5377 15.8046C20.7361 15.3661 20.8997 14.9128 21.027 14.4487L18.5504 11.9771L21.027 9.5055C20.8996 9.04131 20.736 8.58779 20.5377 8.14906L16.7026 11.9771L20.5377 15.8046ZM14.8172 11.9771L19.8731 6.93123C19.634 6.56197 19.3693 6.20997 19.0808 5.87771L12.9713 11.9771L19.0829 18.0765C19.3714 17.7441 19.6361 17.3919 19.8751 17.0224L14.8172 11.9771ZM12.0263 7.31013L15.862 3.48264C15.4225 3.28485 14.9682 3.12159 14.5033 2.99438L12.0263 5.46597L9.54977 2.99438C9.08491 3.12182 8.63069 3.28507 8.19114 3.48264L12.0263 7.31013Z" fill="url(#paint1_radial_3409_12027)"/>
<path d="M4.97224 18.0765C4.68377 17.7441 4.41904 17.3919 4.18002 17.0224L9.23594 11.9771L4.18002 6.93123C4.41917 6.56206 4.68389 6.21006 4.97224 5.87771L11.0838 11.9771L4.97224 18.0765ZM3.51536 8.14957C3.317 8.58812 3.15342 9.04145 3.02612 9.5055L5.50263 11.9771L3.02612 14.4487C3.15351 14.9127 3.31708 15.3661 3.51536 15.8046L7.35053 11.9771L3.51536 8.14957ZM12.0268 12.9197L5.91522 19.0191C6.24789 19.3073 6.60067 19.5715 6.97084 19.8098L12.0268 14.7639L17.0822 19.8098C17.4524 19.5715 17.8052 19.3073 18.1379 19.0191L12.0268 12.9197ZM15.862 20.4736L12.0263 16.6456L8.19114 20.4731C8.63059 20.6709 9.08486 20.8342 9.54977 20.9614L12.0263 18.4898L14.5033 20.9614C14.9682 20.8334 15.4225 20.6697 15.862 20.4715V20.4736ZM12.0268 11.036L18.1379 4.93666C17.8051 4.64878 17.4523 4.38473 17.0822 4.14649L12.0268 9.19182L6.97084 4.14649C6.60077 4.38473 6.24803 4.64878 5.91522 4.93666L12.0268 11.036ZM20.5377 15.8046C20.7361 15.3661 20.8997 14.9128 21.027 14.4487L18.5504 11.9771L21.027 9.5055C20.8996 9.04131 20.736 8.58779 20.5377 8.14906L16.7026 11.9771L20.5377 15.8046ZM14.8172 11.9771L19.8731 6.93123C19.634 6.56197 19.3693 6.20997 19.0808 5.87771L12.9713 11.9771L19.0829 18.0765C19.3714 17.7441 19.6361 17.3919 19.8751 17.0224L14.8172 11.9771ZM12.0263 7.31013L15.862 3.48264C15.4225 3.28485 14.9682 3.12159 14.5033 2.99438L12.0263 5.46597L9.54977 2.99438C9.08491 3.12182 8.63069 3.28507 8.19114 3.48264L12.0263 7.31013Z" fill="white"/>
</g>
<defs>
<radialGradient id="paint0_radial_3409_12027" cx="0" cy="0" r="1" gradientUnits="userSpaceOnUse" gradientTransform="translate(26.1419 24.0039) scale(35.333 35.2601)">
<stop stop-color="#02E1B3"/>
<stop offset="0.35" stop-color="#0B54FF"/>
<stop offset="0.43" stop-color="#1152FF"/>
<stop offset="0.54" stop-color="#204BFF"/>
<stop offset="0.66" stop-color="#3B40FE"/>
<stop offset="0.8" stop-color="#5F31FE"/>
<stop offset="0.93" stop-color="#8E1EFD"/>
<stop offset="1" stop-color="#A714FD"/>
</radialGradient>
<radialGradient id="paint1_radial_3409_12027" cx="0" cy="0" r="1" gradientUnits="userSpaceOnUse" gradientTransform="translate(22.614 20.9994) scale(26.501 26.4481)">
<stop stop-color="#02E1B3"/>
<stop offset="0.35" stop-color="#0B54FF"/>
<stop offset="0.43" stop-color="#1152FF"/>
<stop offset="0.54" stop-color="#204BFF"/>
<stop offset="0.66" stop-color="#3B40FE"/>
<stop offset="0.8" stop-color="#5F31FE"/>
<stop offset="0.93" stop-color="#8E1EFD"/>
<stop offset="1" stop-color="#A714FD"/>
</radialGradient>
<clipPath id="clip0_3409_12027">
<rect x="0.0258789" width="24" height="24" rx="12" fill="white"/>
</clipPath>
</defs>
</svg>
